static/assets/head_icons_png/man/bizi/1010544.svg

<svg xmlns="http://www.w3.org/2000/svg" width="5" height="9"><g transform="translate(-68.25 -30.2)"><linearGradient id="a" gradientUnits="userSpaceOnUse" gradientTransform="matrix(0 -.00415 .00241 0 70.2 33.9)" x1="-819.2" x2="819.2"><stop offset=".22" stop-color="#fedec1"/><stop offset="1" stop-color="#fedec1" stop-opacity="0"/></linearGradient><path d="M70.35 30.2q1.1.15 1.2 2.25 0 2.1.65 4.75l-2.05 1.1-1.9-.9v-.25q.7-2.2.85-4.65.15-2.5 1.25-2.3" fill="url(#a)"/><radialGradient id="b" gradientUnits="userSpaceOnUse" gradientTransform="matrix(.0064 0 0 .0064 70.3 37.7)" spreadMethod="pad" cx="0" cy="0" r="819.2" fx="0" fy="0"><stop offset="0" stop-color="#f39b61"/><stop offset="1" stop-color="#f8be98" stop-opacity="0"/></radialGradient><path d="M72.05 36.05L71.3 36l-.1-.6.05.7-.05-.45q-.15-1.05-.05-2.3l.1-1.7 1.1-1.35q-.6 2.1-.5 3.75l.1 1.45v.1l.1.45" fill="url(#b)"/><radialGradient id="c" gradientUnits="userSpaceOnUse" gradientTransform="translate(70.2 38.85) scale(.00183)" spreadMethod="pad" cx="0" cy="0" r="819.2" fx="0" fy="0"><stop offset="0" stop-color="#f39b61"/><stop offset="1" stop-color="#f8be98"/></radialGradient><path d="M71.3 36l.75.05-.1-.45.05.05.15.75.15.7v.1l-.15.5-.6.3-.5.2-.9.35-.7-.2-.9-.35-.15-.05v-.05q-.35-.35.05-.75v-.05h.05l.75.15.8.25.85-.3q.55-.3.5-.75l-.1-.45m-1.55 2.2l.3.1h.2l.2-.1.25-.25h.1l.25-.05.6-.15v-.05l-.5-.05-.15.05q-.2.05-.35.25h-.05l-.2.2-.45.05-.2-.05v.05m-.55-.4l-.15-.1-.5.05v.05l.6.15.25.05.05.05.2.1.05.05v-.05h-.05q-.25-.25-.45-.35" fill="url(#c)"/><radialGradient id="d" gradientUnits="userSpaceOnUse" gradientTransform="matrix(.0007 .00006 -.00003 .00269 70.05 33.65)" spreadMethod="pad" cx="0" cy="0" r="819.2" fx="0" fy="0"><stop offset=".314" stop-color="#fff" stop-opacity=".431"/><stop offset="1" stop-color="#fff" stop-opacity="0"/></radialGradient><path d="M70.4 32.15l.1 1.55-.15 1.55-.05.3-.05.05-.2.25-.2-.3v-.05l-.1-.3-.1-1.55q0-.95.15-1.55.1-.65.3-.6l.3.65" fill="url(#d)"/><radialGradient id="e" gradientUnits="userSpaceOnUse" gradientTransform="matrix(.00053 .00003 -.00003 .00053 69.95 36.55)" spreadMethod="pad" cx="0" cy="0" r="819.2" fx="0" fy="0"><stop offset=".314" stop-color="#fff" stop-opacity=".431"/><stop offset="1" stop-color="#fff" stop-opacity="0"/></radialGradient><path d="M69.5 36.55q0-.2.15-.3l.3-.1.3.15.1.3-.15.3-.3.1-.3-.15-.1-.3" fill="url(#e)"/><path d="M69.75 38.15l.2.05.45-.05.2-.2h.05q.15-.2.35-.25l.15-.05.5.05v.05l-.6.15-.25.05h-.1l-.25.25-.2.1h-.2l-.3-.1v-.05m-.05 0v.05l-.05-.05h.05m-.05 0l-.2-.1-.05-.05-.25-.05-.6-.15v-.05l.5-.05.15.1q.2.1.45.35" fill="#823909"/></g></svg>

<?xml version="1.0" encoding="utf-8"?>
<svg version="1.1" id="Layer_1"
xmlns="http://www.w3.org/2000/svg"
xmlns:xlink="http://www.w3.org/1999/xlink"
xmlns:author="http://www.sothink.com"
width="5px" height="9px"
xml:space="preserve">
<g id="458" transform="matrix(1, 0, 0, 1, -68.25, -30.2)">
<linearGradient
id="LinearGradID_4024" gradientUnits="userSpaceOnUse" gradientTransform="matrix(0, -0.00415039, 0.00241089, 0, 70.2, 33.9)" spreadMethod ="pad" x1="-819.2" y1="0" x2="819.2" y2="0" >
<stop  offset="0.219608" style="stop-color:#FEDEC1;stop-opacity:1" />
<stop  offset="1" style="stop-color:#FEDEC1;stop-opacity:0" />
</linearGradient>
<path style="fill:url(#LinearGradID_4024) " d="M70.35,30.2Q71.45 30.35 71.55 32.45Q71.55 34.55 72.2 37.2L70.15 38.3L68.25 37.4L68.25 37.15Q68.95 34.95 69.1 32.5Q69.25 30 70.35 30.2" />
<radialGradient
id="RadialGradID_4025" gradientUnits="userSpaceOnUse" gradientTransform="matrix(0.00640869, 0, 0, 0.00640869, 70.3, 37.7)" spreadMethod ="pad" cx="0" cy="0" r="819.2" fx="0" fy="0" >
<stop  offset="0"  style="stop-color:#F39B61;stop-opacity:1" />
<stop  offset="1"  style="stop-color:#F8BE98;stop-opacity:0" />
</radialGradient>
<path style="fill:url(#RadialGradID_4025) " d="M72.05,36.05L71.3 36L71.2 35.4L71.25 36.1L71.2 35.65Q71.05 34.6 71.15 33.35L71.25 31.65L72.35 30.3Q71.75 32.4 71.85 34.05L71.95 35.5L71.95 35.6L72.05 36.05" />
<radialGradient
id="RadialGradID_4026" gradientUnits="userSpaceOnUse" gradientTransform="matrix(0.00183105, 6.10352e-005, -6.10352e-005, 0.00183105, 70.2, 38.85)" spreadMethod ="pad" cx="0" cy="0" r="819.2" fx="0" fy="0" >
<stop  offset="0"  style="stop-color:#F39B61;stop-opacity:1" />
<stop  offset="1"  style="stop-color:#F8BE98;stop-opacity:1" />
</radialGradient>
<path style="fill:url(#RadialGradID_4026) " d="M71.3,36L72.05 36.05L71.95 35.6L72 35.65L72.15 36.4L72.3 37.1L72.3 37.2L72.15 37.7L71.55 38L71.05 38.2L70.15 38.55L69.45 38.35L68.55 38L68.4 37.95L68.4 37.9Q68.05 37.55 68.45 37.15L68.45 37.1L68.5 37.1L69.25 37.25L70.05 37.5L70.9 37.2Q71.45 36.9 71.4 36.45L71.3 36M69.75,38.2L70.05 38.3L70.25 38.3L70.45 38.2L70.7 37.95L70.8 37.95L71.05 37.9L71.65 37.75L71.65 37.7L71.15 37.65L71 37.7Q70.8 37.75 70.65 37.95L70.6 37.95L70.4 38.15L69.95 38.2L69.75 38.15L69.75 38.2M69.2,37.8L69.05 37.7L68.55 37.75L68.55 37.8L69.15 37.95L69.4 38L69.45 38.05L69.65 38.15L69.7 38.2L69.7 38.15L69.65 38.15Q69.4 37.9 69.2 37.8" />
<radialGradient
id="RadialGradID_4027" gradientUnits="userSpaceOnUse" gradientTransform="matrix(0.000701904, 6.10352e-005, -3.05176e-005, 0.00268555, 70.05, 33.65)" spreadMethod ="pad" cx="0" cy="0" r="819.2" fx="0" fy="0" >
<stop  offset="0.313725"  style="stop-color:#FFFFFF;stop-opacity:0.431373" />
<stop  offset="1"  style="stop-color:#FFFFFF;stop-opacity:0" />
</radialGradient>
<path style="fill:url(#RadialGradID_4027) " d="M70.4,32.15L70.5 33.7L70.35 35.25L70.3 35.55L70.25 35.6L70.05 35.85L69.85 35.55L69.85 35.5L69.75 35.2L69.65 33.65Q69.65 32.7 69.8 32.1Q69.9 31.45 70.1 31.5L70.4 32.15" />
<radialGradient
id="RadialGradID_4028" gradientUnits="userSpaceOnUse" gradientTransform="matrix(0.000534058, 3.05176e-005, -3.05176e-005, 0.000534058, 69.95, 36.55)" spreadMethod ="pad" cx="0" cy="0" r="819.2" fx="0" fy="0" >
<stop  offset="0.313725"  style="stop-color:#FFFFFF;stop-opacity:0.431373" />
<stop  offset="1"  style="stop-color:#FFFFFF;stop-opacity:0" />
</radialGradient>
<path style="fill:url(#RadialGradID_4028) " d="M69.5,36.55Q69.5 36.35 69.65 36.25L69.95 36.15L70.25 36.3L70.35 36.6L70.2 36.9L69.9 37L69.6 36.85L69.5 36.55" />
<path style="fill:#823909;fill-opacity:1" d="M69.75,38.15L69.95 38.2L70.4 38.15L70.6 37.95L70.65 37.95Q70.8 37.75 71 37.7L71.15 37.65L71.65 37.7L71.65 37.75L71.05 37.9L70.8 37.95L70.7 37.95L70.45 38.2L70.25 38.3L70.05 38.3L69.75 38.2L69.75 38.15M69.7,38.15L69.7 38.2L69.65 38.15L69.7 38.15M69.65,38.15L69.45 38.05L69.4 38L69.15 37.95L68.55 37.8L68.55 37.75L69.05 37.7L69.2 37.8Q69.4 37.9 69.65 38.15" />
</g>
</svg>
